img/index-hd-large-fill-70.svg

<svg height="34.199741" viewBox="0 0 37.313958 34.1997413" width="37.313958" xmlns="http://www.w3.org/2000/svg"><path d="m24.2074303 22.508391c-1.3946092 0-2.5665007-1.232675-2.5665007-2.7525505 0-1.5198756 1.1718915-2.7932161 2.5665007-2.7932161 1.3946091 0 2.5256885 1.2733405 2.5256885 2.7932161 0 1.5198755-1.1310794 2.7525505-2.5256885 2.7525505m.592359 5.3424388c-1.2989921 1.4143992-3.3022852 2.1019014-6.1241533 2.1019014-.0058303 0-.0128267-.0012708-.0198231-.0012708-.0058303 0-.0128266.0012708-.019823.0012708-2.8218681 0-4.8239951-.6875022-6.1218212-2.1019014-.398793-.4346133-.398793-1.1373651 0-1.5707075.3976268-.4333425 1.0424587-.4333425 1.4412516 0 .895535.9759735 2.4265733 1.4512524 4.6805696 1.4512524.0069964 0 .0139927.0012708.019823.0012708.0069964 0 .0139928-.0012708.0198231-.0012708 2.2539963 0 3.7862007-.4752789 4.6829017-1.4512524.3987929-.4346133 1.0436248-.4333425 1.4412516 0 .3976269.4346132.3976269 1.137365 0 1.5707075m-14.2189501-8.0949893c0-1.5186048 1.1695594-2.7932161 2.5630025-2.7932161 1.3946092 0 2.5256885 1.2746113 2.5256885 2.7932161 0 1.5198755-1.1310793 2.7525505-2.5256885 2.7525505-1.3934431 0-2.5630025-1.232675-2.5630025-2.7525505m20.5110163-17.53448394c.9445096 0 1.7129439.83745651 1.7129439 1.86553286 0 1.02934715-.7684343 1.86680365-1.7129439 1.86680365-.9445095 0-1.7129439-.8374565-1.7129439-1.86680365 0-1.02807635.7684344-1.86553286 1.7129439-1.86553286m6.2221025 14.51125324c0-2.6953646-2.0114555-4.8874928-4.4846713-4.8874928-1.0704442 0-2.0534338.4117389-2.8253663 1.0966995-2.7344135-1.8731577-6.2046116-3.00162713-9.9243467-3.24053733l1.9403258-6.68567327 5.3323978 1.36865047c.1399273 2.11588025 1.7630845 3.79079326 3.7395582 3.79079326 2.0674265 0 3.7500528-1.83376288 3.7500528-4.08816021 0-2.25312654-1.6826263-4.08688942-3.7500528-4.08688942-1.4459159 0-2.7029298.89718406-3.3291047 2.20737777l-6.1964491-1.58976948c-.5188973-.13343389-1.0436248.19189064-1.2045412.74595898l-2.4090825 8.29831713c-4.0077523.10674712-7.775296 1.239029-10.71027196 3.2214753-.76143796-.6493782-1.71877419-1.0382427-2.75773471-1.0382427-2.47321578 0-4.48467133 2.1921282-4.48467133 4.8874928 0 1.6660174.76960038 3.1388734 1.94149188 4.0208078-.04897457.3875937-.07462792.777729-.07462792 1.1729475 0 3.368888 1.79690029 6.5026782 5.0595395 8.8231571 3.12737614 2.2251689 7.26689334 3.4502191 11.65478154 3.4502191 4.3878883 0 8.5274055-1.2250502 11.6547816-3.4502191 3.2626392-2.3204789 5.0595395-5.4542691 5.0595395-8.8231571 0-.3596361-.0221552-.7167307-.0629673-1.0712836 1.2500176-.8679556 2.0814192-2.3916436 2.0814192-4.1224717" fill="#9b9b9b" fill-rule="evenodd"/></svg>

<?xml version="1.0" encoding="UTF-8"?>
<svg width="37.313958px" height="34.1997413px" viewBox="0 0 37.313958 34.1997413" version="1.1" xmlns="http://www.w3.org/2000/svg" xmlns:xlink="http://www.w3.org/1999/xlink">
    <!-- Generator: Sketch 50.2 (55047) - http://www.bohemiancoding.com/sketch -->
    <desc>Created with Sketch.</desc>
    <defs></defs>
    <g id="Page-1" stroke="none" stroke-width="1" fill="none" fill-rule="evenodd">
        <path d="M24.2074303,22.508391 C22.8128211,22.508391 21.6409296,21.275716 21.6409296,19.7558405 C21.6409296,18.2359649 22.8128211,16.9626244 24.2074303,16.9626244 C25.6020394,16.9626244 26.7331188,18.2359649 26.7331188,19.7558405 C26.7331188,21.275716 25.6020394,22.508391 24.2074303,22.508391 M24.7997893,27.8508298 C23.5007972,29.265229 21.4975041,29.9527312 18.675636,29.9527312 C18.6698057,29.9527312 18.6628093,29.9514604 18.6558129,29.9514604 C18.6499826,29.9514604 18.6429863,29.9527312 18.6359899,29.9527312 C15.8141218,29.9527312 13.8119948,29.265229 12.5141687,27.8508298 C12.1153757,27.4162165 12.1153757,26.7134647 12.5141687,26.2801223 C12.9117955,25.8467798 13.5566274,25.8467798 13.9554203,26.2801223 C14.8509553,27.2560958 16.3819936,27.7313747 18.6359899,27.7313747 C18.6429863,27.7313747 18.6499826,27.7326455 18.6558129,27.7326455 C18.6628093,27.7326455 18.6698057,27.7313747 18.675636,27.7313747 C20.9296323,27.7313747 22.4618367,27.2560958 23.3585377,26.2801223 C23.7573306,25.845509 24.4021625,25.8467798 24.7997893,26.2801223 C25.1974162,26.7147355 25.1974162,27.4174873 24.7997893,27.8508298 M10.5808392,19.7558405 C10.5808392,18.2372357 11.7503986,16.9626244 13.1438417,16.9626244 C14.5384509,16.9626244 15.6695302,18.2372357 15.6695302,19.7558405 C15.6695302,21.275716 14.5384509,22.508391 13.1438417,22.508391 C11.7503986,22.508391 10.5808392,21.275716 10.5808392,19.7558405 M31.0918555,2.22135656 C32.0363651,2.22135656 32.8047994,3.05881307 32.8047994,4.08688942 C32.8047994,5.11623657 32.0363651,5.95369307 31.0918555,5.95369307 C30.147346,5.95369307 29.3789116,5.11623657 29.3789116,4.08688942 C29.3789116,3.05881307 30.147346,2.22135656 31.0918555,2.22135656 M37.313958,16.7326098 C37.313958,14.0372452 35.3025025,11.845117 32.8292867,11.845117 C31.7588425,11.845117 30.7758529,12.2568559 30.0039204,12.9418165 C27.2695069,11.0686588 23.7993088,9.94018937 20.0795737,9.70127917 L22.0198995,3.0156059 L27.3522973,4.38425637 C27.4922246,6.50013662 29.1153818,8.17504963 31.0918555,8.17504963 C33.159282,8.17504963 34.8419083,6.34128675 34.8419083,4.08688942 C34.8419083,1.83376288 33.159282,0 31.0918555,0 C29.6459396,0 28.3889257,0.897184058 27.7627508,2.20737777 L21.5663017,0.617608289 C21.0474044,0.484174399 20.5226769,0.80949893 20.3617605,1.36356727 L17.952678,9.6618844 C13.9449257,9.76863152 10.177382,10.9009134 7.24240604,12.8833597 C6.48096808,12.2339815 5.52363185,11.845117 4.48467133,11.845117 C2.01145555,11.845117 0,14.0372452 0,16.7326098 C0,18.3986272 0.769600384,19.8714832 1.94149188,20.7534176 C1.89251731,21.1410113 1.86686396,21.5311466 1.86686396,21.9263651 C1.86686396,25.2952531 3.66376425,28.4290433 6.92640346,30.7495222 C10.0537796,32.9746911 14.1932968,34.1997413 18.581185,34.1997413 C22.9690733,34.1997413 27.1085905,32.9746911 30.2359666,30.7495222 C33.4986058,28.4290433 35.2955061,25.2952531 35.2955061,21.9263651 C35.2955061,21.566729 35.2733509,21.2096344 35.2325388,20.8550815 C36.4825564,19.9871259 37.313958,18.4634379 37.313958,16.7326098" id="Fill-70" fill="#9B9B9B"></path>
    </g>
</svg>
